public/mail-icons/icon/icons_V4-17.svg

<svg viewBox="0 0 80 80" xmlns="http://www.w3.org/2000/svg"><g fill="#fff"><path d="m38 58.8h-24.49a13.52 13.52 0 0 1 -13.51-13.51v-31.78a13.52 13.52 0 0 1 13.51-13.51h31.78a13.52 13.52 0 0 1 13.51 13.51v24a2 2 0 1 1 -4.09 0v-24a9.43 9.43 0 0 0 -9.42-9.41h-31.78a9.42 9.42 0 0 0 -9.41 9.41v31.78a9.43 9.43 0 0 0 9.41 9.42h24.49a2 2 0 1 1 0 4.09z"/><path d="m19.13 26.29a8.06 8.06 0 1 1 8.05-8.06 8.07 8.07 0 0 1 -8.05 8.06zm0-12a4 4 0 1 0 4 4 4 4 0 0 0 -4-4.02z"/><path d="m19.13 48.63a8.06 8.06 0 1 1 8.05-8.06 8.07 8.07 0 0 1 -8.05 8.06zm0-12a4 4 0 1 0 4 4 4 4 0 0 0 -4-4.01z"/><path d="m19.13 36.62a2.05 2.05 0 0 1 -2.05-2v-10.38a2.05 2.05 0 0 1 4.1 0v10.33a2.05 2.05 0 0 1 -2.05 2.05z"/><path d="m45.68 20.28h-11a2 2 0 0 1 0-4.1h11a2.05 2.05 0 0 1 0 4.1z"/><path d="m45.68 42.62h-11a2 2 0 0 1 0-4.1h11a2 2 0 0 1 0 4.1z"/></g><path d="m68.73 59h-11.18a2 2 0 0 1 -2-2v-9.12a2 2 0 1 1 4.09 0v7h9.14a2.05 2.05 0 0 1 0 4.1z" fill="#f1b255"/><path d="m57.54 78.53a21.59 21.59 0 0 1 -21.54-21.53v-.22a21.53 21.53 0 0 1 20.7-21.32h.2.67a21.58 21.58 0 1 1 0 43.15zm0-39.05h-.39-.29a17.44 17.44 0 0 0 -16.79 17.29v.23a17.48 17.48 0 1 0 17.47-17.52z" fill="#f1b255"/></svg>

<svg id="Layer_1" data-name="Layer 1" xmlns="http://www.w3.org/2000/svg" viewBox="0 0 80 80"><defs><style>.cls-1{fill:#fff;}.cls-2{fill:#f1b255;}</style></defs><title>mails icons_V4</title><path class="cls-1" d="M38,58.8H13.51A13.52,13.52,0,0,1,0,45.29V13.51A13.52,13.52,0,0,1,13.51,0H45.29A13.52,13.52,0,0,1,58.8,13.51v24a2,2,0,1,1-4.09,0v-24A9.43,9.43,0,0,0,45.29,4.1H13.51A9.42,9.42,0,0,0,4.1,13.51V45.29a9.43,9.43,0,0,0,9.41,9.42H38a2,2,0,1,1,0,4.09Z"/><path class="cls-1" d="M19.13,26.29a8.06,8.06,0,1,1,8.05-8.06A8.07,8.07,0,0,1,19.13,26.29Zm0-12a4,4,0,1,0,4,4A4,4,0,0,0,19.13,14.27Z"/><path class="cls-1" d="M19.13,48.63a8.06,8.06,0,1,1,8.05-8.06A8.07,8.07,0,0,1,19.13,48.63Zm0-12a4,4,0,1,0,4,4A4,4,0,0,0,19.13,36.62Z"/><path class="cls-1" d="M19.13,36.62a2.05,2.05,0,0,1-2.05-2V24.24a2.05,2.05,0,0,1,4.1,0V34.57A2.05,2.05,0,0,1,19.13,36.62Z"/><path class="cls-1" d="M45.68,20.28h-11a2,2,0,0,1,0-4.1h11a2.05,2.05,0,0,1,0,4.1Z"/><path class="cls-1" d="M45.68,42.62h-11a2,2,0,0,1,0-4.1h11a2,2,0,0,1,0,4.1Z"/><path class="cls-2" d="M68.73,59H57.55a2,2,0,0,1-2-2V47.88a2,2,0,1,1,4.09,0v7h9.14a2.05,2.05,0,0,1,0,4.1Z"/><path class="cls-2" d="M57.54,78.53A21.59,21.59,0,0,1,36,57v-.22a21.53,21.53,0,0,1,20.7-21.32l.2,0,.67,0a21.58,21.58,0,1,1,0,43.15Zm0-39.05-.39,0-.29,0A17.44,17.44,0,0,0,40.07,56.77V57A17.48,17.48,0,1,0,57.54,39.48Z"/></svg>
